assets/image/twitter.svg

<svg width="42" height="42" viewBox="0 0 42 42" fill="none" xmlns="http://www.w3.org/2000/svg">
<rect x="0.493301" y="0.5" width="41" height="41" fill="white"/>
<rect x="0.493301" y="0.5" width="41" height="41" stroke="#18B5DC"/>
<path d="M28.9375 16.9264C28.9502 17.104 28.9502 17.2817 28.9502 17.4594C28.9502 22.8781 24.8258 29.1218 17.2878 29.1218C14.9654 29.1218 12.8081 28.4492 10.9933 27.2817C11.3233 27.3198 11.6405 27.3325 11.9832 27.3325C13.8994 27.3325 15.6634 26.6853 17.072 25.5812C15.27 25.5431 13.7598 24.3629 13.2395 22.7386C13.4933 22.7766 13.7471 22.802 14.0137 22.802C14.3817 22.802 14.7497 22.7512 15.0923 22.6624C13.2142 22.2817 11.8055 20.632 11.8055 18.6396V18.5888C12.3512 18.8934 12.9857 19.0838 13.6583 19.1091C12.5542 18.3731 11.8309 17.1167 11.8309 15.6954C11.8309 14.934 12.0339 14.236 12.3892 13.6269C14.407 16.1142 17.44 17.7385 20.841 17.9162C20.7776 17.6117 20.7395 17.2944 20.7395 16.9772C20.7395 14.7183 22.5669 12.8782 24.8385 12.8782C26.0187 12.8782 27.0846 13.3731 27.8334 14.1726C28.7598 13.9949 29.6481 13.6523 30.4349 13.1827C30.1303 14.1345 29.4831 14.934 28.6329 15.4416C29.4578 15.3528 30.2573 15.1243 30.9933 14.8071C30.435 15.6193 29.737 16.3426 28.9375 16.9264Z" fill="#18B5DC"/>
</svg>

<svg xmlns="http://www.w3.org/2000/svg" width="42" height="42" fill="none"><path fill="#fff" d="M.493.5h41v41h-41z"/><path stroke="#18B5DC" d="M.493.5h41v41h-41z"/><path fill="#18B5DC" d="M28.938 16.926c.012.178.012.356.012.533 0 5.42-4.124 11.663-11.662 11.663-2.323 0-4.48-.673-6.295-1.84.33.038.647.05.99.05 1.916 0 3.68-.647 5.089-1.75a4.106 4.106 0 0 1-3.832-2.843c.253.038.507.063.774.063.368 0 .736-.05 1.078-.14a4.1 4.1 0 0 1-3.287-4.022v-.051c.546.304 1.18.495 1.853.52a4.096 4.096 0 0 1-1.827-3.414c0-.761.203-1.459.558-2.068a11.651 11.651 0 0 0 8.452 4.29 4.63 4.63 0 0 1-.102-.94 4.097 4.097 0 0 1 4.1-4.099 4.09 4.09 0 0 1 2.994 1.295 8.069 8.069 0 0 0 2.602-.99 4.088 4.088 0 0 1-1.802 2.259 8.218 8.218 0 0 0 2.36-.635 8.81 8.81 0 0 1-2.055 2.12Z"/></svg>
